assets/img/footer__soc-links_tripadv.svg

<svg xmlns="http://www.w3.org/2000/svg" viewBox="0 0 30 30" enable-background="new 0 0 30 30"><style type="text/css">.st0{fill:#BABABA;}</style><path class="st0" d="M21 9.8c-1.7-.8-3.7-1.2-5.9-1.2s-4.3.4-6.1 1.2c3.4 0 6.1 2.7 6.1 6.1 0-3.3 2.6-6 5.9-6.1zM9 11c-2.7 0-4.9 2.2-4.9 4.9s2.2 4.9 4.9 4.9 4.9-2.2 4.9-4.9-2.2-4.9-4.9-4.9zm-.1 7.9c-1.6 0-3-1.3-3-3 0-1.6 1.3-3 3-3 1.6 0 3 1.3 3 3s-1.4 3-3 3zM8.9 13.9c-1.1 0-2.1.9-2.1 2.1 0 1.1.9 2.1 2.1 2.1 1.1 0 2.1-.9 2.1-2.1 0-1.2-1-2.1-2.1-2.1zm-.1 3c-.5 0-1-.4-1-1 0-.5.4-1 1-1 .5 0 1 .4 1 1-.1.6-.5 1-1 1zM21.2 13.9c-1.1 0-2.1.9-2.1 2.1 0 1.1.9 2.1 2.1 2.1s2.1-.9 2.1-2.1c-.1-1.2-1-2.1-2.1-2.1zm-.2 3c-.5 0-1-.4-1-1s.4-1 1-1c.5 0 1 .4 1 1s-.4 1-1 1zM21.2 11c-2.7 0-4.9 2.2-4.9 4.9s2.2 4.9 4.9 4.9 4.9-2.2 4.9-4.9-2.2-4.9-4.9-4.9zm0 7.9c-1.6 0-3-1.3-3-3 0-1.6 1.3-3 3-3 1.6 0 3 1.3 3 3-.1 1.6-1.4 3-3 3zM15 0c-8.3 0-15 6.7-15 15s6.7 15 15 15 15-6.7 15-15-6.7-15-15-15zm6.2 22c-1.9 0-3.6-.9-4.7-2.3-.5.6-1.4 1.9-1.4 1.9-.2-.3-.9-1.4-1.4-1.9-1.1 1.5-2.8 2.3-4.7 2.3-3.4 0-6.1-2.7-6.1-6.1 0-1.3.4-2.6 1.2-3.6-.1-.7-.6-1.7-1.2-2.4h3.9c2.1-1.4 5.1-2.3 8.4-2.3 3.3 0 6.1.9 8.2 2.3h4.1c-.6.7-1.1 1.7-1.2 2.4.7 1 1.2 2.2 1.2 3.6-.2 3.4-3 6.1-6.3 6.1z"/></svg>

<?xml version="1.0" encoding="utf-8"?>
<!-- Generator: Adobe Illustrator 19.2.0, SVG Export Plug-In . SVG Version: 6.00 Build 0)  -->
<svg version="1.1" id="Layer_1" xmlns="http://www.w3.org/2000/svg" xmlns:xlink="http://www.w3.org/1999/xlink" x="0px" y="0px"
	 viewBox="0 0 30 30" style="enable-background:new 0 0 30 30;" xml:space="preserve">
<style type="text/css">
	.st0{fill:#BABABA;}
</style>
<g>
	<path class="st0" d="M21,9.8c-1.7-0.8-3.7-1.2-5.9-1.2c-2.2,0-4.3,0.4-6.1,1.2c3.4,0,6.1,2.7,6.1,6.1C15.1,12.6,17.7,9.9,21,9.8z"
		/>
	<path class="st0" d="M9,11c-2.7,0-4.9,2.2-4.9,4.9c0,2.7,2.2,4.9,4.9,4.9s4.9-2.2,4.9-4.9C13.9,13.2,11.7,11,9,11z M8.9,18.9
		c-1.6,0-3-1.3-3-3c0-1.6,1.3-3,3-3c1.6,0,3,1.3,3,3C11.9,17.6,10.5,18.9,8.9,18.9z"/>
	<path class="st0" d="M8.9,13.9c-1.1,0-2.1,0.9-2.1,2.1c0,1.1,0.9,2.1,2.1,2.1c1.1,0,2.1-0.9,2.1-2.1C11,14.8,10,13.9,8.9,13.9z
		 M8.8,16.9c-0.5,0-1-0.4-1-1c0-0.5,0.4-1,1-1c0.5,0,1,0.4,1,1C9.7,16.5,9.3,16.9,8.8,16.9z"/>
	<path class="st0" d="M21.2,13.9c-1.1,0-2.1,0.9-2.1,2.1c0,1.1,0.9,2.1,2.1,2.1s2.1-0.9,2.1-2.1C23.2,14.8,22.3,13.9,21.2,13.9z
		 M21,16.9c-0.5,0-1-0.4-1-1c0-0.6,0.4-1,1-1c0.5,0,1,0.4,1,1C22,16.5,21.6,16.9,21,16.9z"/>
	<path class="st0" d="M21.2,11c-2.7,0-4.9,2.2-4.9,4.9c0,2.7,2.2,4.9,4.9,4.9c2.7,0,4.9-2.2,4.9-4.9C26.1,13.2,23.9,11,21.2,11z
		 M21.2,18.9c-1.6,0-3-1.3-3-3c0-1.6,1.3-3,3-3c1.6,0,3,1.3,3,3C24.1,17.5,22.8,18.9,21.2,18.9z"/>
	<path class="st0" d="M15,0C6.7,0,0,6.7,0,15s6.7,15,15,15s15-6.7,15-15S23.3,0,15,0z M21.2,22c-1.9,0-3.6-0.9-4.7-2.3
		c-0.5,0.6-1.4,1.9-1.4,1.9c-0.2-0.3-0.9-1.4-1.4-1.9C12.6,21.2,10.9,22,9,22c-3.4,0-6.1-2.7-6.1-6.1c0-1.3,0.4-2.6,1.2-3.6
		c-0.1-0.7-0.6-1.7-1.2-2.4h3.9c2.1-1.4,5.1-2.3,8.4-2.3c3.3,0,6.1,0.9,8.2,2.3h4.1c-0.6,0.7-1.1,1.7-1.2,2.4c0.7,1,1.2,2.2,1.2,3.6
		C27.3,19.3,24.5,22,21.2,22z"/>
</g>
</svg>
